!!!!SEGMENT: pl-kk--kk-i-3--021_anonim--alleluia-angelus-intuit.krn
!!!cenid: 15xx:629
!!!COM: Anonim
!!!COM-rismid: pe30004985
!!!CDT:
!!!CNT:
!!!OTL: Alleluia, Angelus intuit
!!!PDT:
!!!AGN:
!!!SMS-siglum: PL-Kk
!!!SMS-shelfmark: Kk.I.3
!!!SMS-shelfwork: 021 W
!!!SMS-variant:
!!!SMS-altvar:
!!!NIFC-rismid: 1001145520
!!!URL-scan: http://repozytorium.nifc.pl/skany/pl-kk-nut--i-3
!!!ONB-nifc: UWAGA: Discantus (s. 86v-87v, skan 0089-0090), Tenor (s. 64v-65v, skan 0237-0238), Bassus (s. 84v-86r, skan 0388-0389)
!!!key: e:phr
**kern	**text	**kern	**text	**text	**kern	**text
*part3	*part3	*part2	*part2	*part2	*part1	*part1
*staff3	*staff3	*staff2	*staff2	*staff2	*staff1	*staff1
*I"Bassus	*	*I"Tenor	*	*	*I"Discantus	*
*I'B	*	*I'T	*	*	*I'A	*
*Ibass	*	*Itenor	*	*	*Ialto	*
*ICvox	*	*ICvox	*	*	*ICvox	*
*clefF4	*	*clefC4	*	*	*clefC3	*
*k[]	*	*k[]	*	*	*k[]	*
*C:	*	*C:	*	*	*C:	*
*M2/1	*	*M2/1	*	*	*M2/1	*
*met(C|)	*	*met(C|)	*	*	*met(C|)	*
=1-	=1-	=1-	=1-	=1-	=1-	=1-
*lig	*	*	*	*	*	*
1C	Al-	00r	.	.	0r	.
1D	-le-	.	.	.	.	.
*Xlig	*	*	*	*	*	*
=2-	=2-	=2-	=2-	=2-	=2-	=2-
1E	.	.	.	.	1r	.
*Xbrackettup	*	*	*	*	*	*
*col	*	*	*	*	*	*
!LO:TUP:b	!	!	!	!	!	!
3F/	.	.	.	.	1c	Al-
3G/	.	.	.	.	.	.
3A/	.	.	.	.	.	.
*Xcol	*	*	*	*	*	*
=3-	=3-	=3-	=3-	=3-	=3-	=3-
*	*	*	*	*	*lig	*
1G	.	1r	.	.	1d	-le
!LO:SIC:v:t=custos c	!	!	!	!	!	!
2C/	.	1C	.	Al-	1e	.
*	*	*	*	*	*Xlig	*
!LO:LB:g=original	!	!	!	!	!	!
*clefF3	*	*	*	*	*	*
*2\right	*	*	*	*	*	*
2c\	.	.	.	.	.	.
=4-	=4-	=4-	=4-	=4-	=4-	=4-
2B\	.	1D	.	.	1f	.
2A\	.	.	.	.	.	.
*	*	*lig	*	*	*	*
1G	.	1E	.	-le-	1g	.
=5-	=5-	=5-	=5-	=5-	=5-	=5-
2r	.	1.F	.	.	1c	.
2.D/	.	.	.	.	.	.
.	.	.	.	.	1f	.
4E/	.	.	.	.	.	.
*	*	*Xlig	*	*	*	*
2F/	.	2F/	.	.	.	.
=6-	=6-	=6-	=6-	=6-	=6-	=6-
*	*	*	*	*	*2\right	*
!	!	!	!	!	!LO:SIC:v:t=custos e	!
1C	.	1E	.	.	2g\	.
!	!	!	!	!	!LO:LB:g=original	!
.	.	.	.	.	2e/	.
1D	.	1D	.	.	1f	.
=7-	=7-	=7-	=7-	=7-	=7-	=7-
1C	.	1G	.	.	1e	.
!	!	!LO:SIC:v:t=custos G	!	!	!	!
2D/	.	2F/	.	.	2d/	.
!	!	!LO:LB:g=original	!	!	!	!
2C/	.	2G/	.	.	2e/	.
=8-	=8-	=8-	=8-	=8-	=8-	=8-
2D/	.	2D/	.	.	2f\	.
1E	.	1G	.	.	2.g\	.
.	.	.	.	.	4f\	.
2AA/	.	2A/	.	.	2.f\	.
=9-	=9-	=9-	=9-	=9-	=9-	=9-
!LO:SIC:v:t=custos D	!	!	!	!	!	!
1C	.	1E	.	.	.	.
.	.	.	.	.	4e\	.
.	.	.	.	.	1e	.
!LO:LB:g=original	!	!	!	!	!	!
*clefF4	*	*	*	*	*	*
1D	-lu-	1F	.	-lu-	.	.
.	.	.	.	.	2d/	.
=10-	=10-	=10-	=10-	=10-	=10-	=10-
!	!	!	!	!	!LO:SIC:v:t=custos B	!
0AA;	-ya	0E;	.	-ya	0e;<	.
!	!	!	!	!	!LO:LB:g=original	!
=11||	=11||	=11||	=11||	=11||	=11||	=11||
*	*	*	*	*	*lig	*
2.E/	An-	0E	Sur-	An-	1B	An-
!LO:TX:b:t=Surrexit	!	!	!	!	!	!
4D/	.	.	.	.	.	.
2C/	.	.	.	.	1c	.
2AA/	.	.	.	.	.	.
*	*	*	*	*	*Xlig	*
=12-	=12-	=12-	=12-	=12-	=12-	=12-
1D	.	1F	-re-	.	1d	.
2E/	.	0G	.	.	1c	.
4C/	.	.	.	.	.	.
4D/	.	.	.	.	.	.
=13-	=13-	=13-	=13-	=13-	=13-	=13-
4E/	.	.	.	.	1B	.
4F/	.	.	.	.	.	.
2G\	.	.	.	.	.	.
!LO:SIC:v:t=custos G	!	!	!	!	!	!
1A	.	1F	.	.	1A	.
!LO:PB:g=original	!	!	!	!	!	!
=14-	=14-	=14-	=14-	=14-	=14-	=14-
1G	.	1E	.	.	2B/	.
.	.	.	.	.	2c/	.
*	*	*lig	*	*	*	*
1F	-ge-	1D	.	-ge-	1d	-ge-
=15-	=15-	=15-	=15-	=15-	=15-	=15-
!	!	!LO:SIC:v:t=custos E	!	!	!	!
2E/	.	1E	.	.	2B/	.
2.C/	-lus	.	.	.	2.e\	-lus
*	*	*Xlig	*	*	*	*
!	!	!LO:LB:g=original	!	!	!	!
.	.	1E	-xit	-lus	.	.
4D/	.	.	.	.	4f\	.
2E/	.	.	.	.	2g\	.
=16-	=16-	=16-	=16-	=16-	=16-	=16-
2D/	in-	2r	.	.	2f\	.
2C/	.	2G/	.	in-	2e/	in-
!	!	!	!	!	!LO:SIC:v:t=custos g	!
2F/	.	2A/	.	-tu-	2f\	-tu-
!	!	!	!	!	!LO:PB:g=original	!
2E/	.	2G/	.	.	2g\	.
=17-	=17-	=17-	=17-	=17-	=17-	=17-
*	*	*2\right	*	*	*	*
2.AA/	-tu-	2.c\	.	-lit	2.e/	-lit
4BB/	.	4B/	.	.	4d/	.
4C/	.	2A/	.	.	2c/	.
4D/	.	.	.	.	.	.
2E/	.	2G/	.	.	2B/	.
=18-	=18-	=18-	=18-	=18-	=18-	=18-
0AA	-lit	1A	.	.	2A/	.
.	.	.	.	.	1e	di-
.	.	2E/	.	.	.	.
.	.	2A/	.	.	2c/	.
=19-	=19-	=19-	=19-	=19-	=19-	=19-
!LO:SIC:v:t=custos AA	!	!	!	!	!	!
2r	.	2G/	.	.	2d/	.
!LO:LB:g=original	!	!	!	!	!	!
2AA/	di-	1E	.	.	2e/	.
2D/	.	.	.	.	2.c/	.
2C/	.	2G/	.	.	.	.
.	.	.	.	.	4B/	.
=20-	=20-	=20-	=20-	=20-	=20-	=20-
2D/	.	2F/	.	.	2A/	.
!	!	!LO:SIC:v:t=custos E	!	!	!	!
2GG/	.	1D	.	di-	2B/	.
2BB/	.	.	.	.	2G/	.
!	!	!LO:LB:g=original	!	!	!	!
2C/	.	2E/	.	.	1A/	.
=21-	=21-	=21-	=21-	=21-	=21-	=21-
1D	-cens	1F	.	.	.	.
!	!	!	!	!	!LO:SIC:v:t=custos c	!
.	.	.	.	.	2B/	.
!	!	!	!	!	!LO:LB:g=original	!
2C/	.	1E	.	-cens	1c	.
1AA/	a-	.	.	.	.	.
=22-	=22-	=22-	=22-	=22-	=22-	=22-
*	*	*lig	*	*	*	*
.	.	1D	.	a-	1B	-cens
2GG/	.	.	.	.	.	.
1C	.	1E	.	.	2G/	a-
.	.	.	.	.	2A/	.
*	*	*Xlig	*	*	*	*
=23-	=23-	=23-	=23-	=23-	=23-	=23-
*	*	*lig	*	*	*	*
1BB	-ue	1G	pa-	-ue	1B	-ve
1AA	.	1A	.	.	2.c/	.
.	.	.	.	.	4d/	.
*	*	*Xlig	*	*	*	*
=24-	=24-	=24-	=24-	=24-	=24-	=24-
2r	.	1c	.	.	1e	.
2.A\	.	.	.	.	.	.
.	.	1A	.	.	2f\	.
4G\	.	.	.	.	.	.
!LO:SIC:v:t=custos E	!	!	!	!	!	!
2F\	.	.	.	.	1d\	.
!LO:LB:g=original	!	!	!	!	!	!
=25-	=25-	=25-	=25-	=25-	=25-	=25-
1E	.	1G	.	.	.	.
.	.	.	.	.	2c/	.
1D	.	1A	.	.	1d	.
=26-	=26-	=26-	=26-	=26-	=26-	=26-
2r	.	1E	.	ple-	2r	.
2C/	ple-	.	.	.	2e/	ple-
2D/	.	2F/	.	.	2d/	.
2.E/	.	2.G/	.	.	1B/	.
=27-	=27-	=27-	=27-	=27-	=27-	=27-
.	.	.	.	.	.	.
4D/	.	4F/	-ſtor	.	.	.
!	!	!	!	!	!LO:SIC:v:t=custos d	!
2C/	.	1E	bo-	.	2c/	.
!	!	!	!	!	!LO:LB:g=original	!
1BB	-na	.	.	.	1d	.
!	!	!LO:SIC:v:t=custos E	!	!	!	!
.	.	2D/	-nus	.	.	.
!	!	!LO:PB:g=original	!	!	!	!
=28-	=28-	=28-	=28-	=28-	=28-	=28-
1AA	.	1E	.	-na	1c	-na
2r	.	2r	.	.	2B/	gra-
1AA/	gra-	1E/	pa-	gra-	1c\	.
=29-	=29-	=29-	=29-	=29-	=29-	=29-
.	.	.	.	.	.	.
2BB/	.	2D/	-ſtor	.	2d/	.
2C/	.	2E/	.	.	2c/	.
2D/	.	2F/	.	.	2A/	.
=30-	=30-	=30-	=30-	=30-	=30-	=30-
2GG/	.	2.G/	.	.	2B/	.
1C	.	.	.	.	1c	.
.	.	4F/	bo-	.	.	.
.	.	2E/	-nus	.	.	.
2BB/	.	2D/	.	.	2d/	.
=31-	=31-	=31-	=31-	=31-	=31-	=31-
!LO:SIC:v:t=custos AA	!	!	!	!	!	!
2AA/	.	1E	qui	.	2c/	.
!LO:LB:g=original	!	!	!	!	!	!
2C/	.	.	.	.	1e	.
1D	-ti-	1F	po-	-ti-	.	.
.	.	.	.	.	2d/	-ti-
=32-	=32-	=32-	=32-	=32-	=32-	=32-
1AA	-a	1E	-ſu-	-a	1e	-a
2r	.	1D	-it	be-	2r	.
2D/	be	.	.	.	2f\	be-
=33-	=33-	=33-	=33-	=33-	=33-	=33-
*	*	*lig	*	*	*	*
!	!	!	!	!	!LO:SIC:v:t=custos d	!
2C/	.	1G	.	.	2e/	.
!	!	!	!	!	!LO:LB:g=original	!
2BB/	.	.	.	.	2d/	.
2AA/	.	1A	.	.	2c/	.
2D/	.	.	.	.	2f\	.
*	*	*Xlig	*	*	*	*
=34-	=34-	=34-	=34-	=34-	=34-	=34-
!	!	!LO:SIC:v:t=custos B	!	!	!	!
2C/	.	0c	.	.	4e/	.
.	.	.	.	.	4d/	.
2BB/	.	.	.	.	1g	.
1AA	.	.	.	.	.	.
.	.	.	.	.	2f\	.
!	!	!LO:LB:g=original	!	!	!	!
=35-	=35-	=35-	=35-	=35-	=35-	=35-
1GG	.	1B	.	.	2.g\	.
.	.	.	.	.	4f\	.
2C/	.	1G	.	.	2e/	.
2BB/	.	.	.	.	2d/	.
=36-	=36-	=36-	=36-	=36-	=36-	=36-
1AA	.	1A	.	.	1c	.
0r	.	1G	.	.	1d	.
=37-	=37-	=37-	=37-	=37-	=37-	=37-
.	.	1A	.	.	1c	.
1GG	.	1B	.	.	2r	.
.	.	.	.	.	1g\	.
=38-	=38-	=38-	=38-	=38-	=38-	=38-
1D	.	2r	.	.	.	.
.	.	2D/	a-	.	2f\	.
!LO:SIC:v:t=custos AA	!	!	!	!	!LO:SIC:v:t=custos c	!
2C/	.	2G/	-ni-	.	2e\	.
!LO:LB:g=original	!	!	!	!	!LO:LB:g=original	!
2.AA/	.	2A/	-mam	.	2.c/	.
=39-	=39-	=39-	=39-	=39-	=39-	=39-
.	.	1c	ſu-	.	.	.
4BB/	.	.	.	.	4d/	.
2C/	.	.	.	.	2e/	.
2D/	.	2B/	-am	.	2d/	.
2E/	.	2G/	.	.	2g\	.
=40-	=40-	=40-	=40-	=40-	=40-	=40-
2F/	.	2A/	.	.	2f\	.
2.G\	.	1B	.	.	1e	-ne-
4A\	.	.	.	.	.	.
!	!	!LO:SIC:v:t=custos B	!	!	!	!
2F\	.	2A/	.	.	2d/	-di-
!	!	!LO:LB:g=original	!	!	!	!
=41-	=41-	=41-	=41-	=41-	=41-	=41-
1E	.	1B	pro	.	1e	-cta
2r	.	1c	.	.	00r	.
2F\	be-	.	.	.	.	.
=42-	=42-	=42-	=42-	=42-	=42-	=42-
2F\	-ne-	0d	.	-ne-	.	.
2.G\	-di-	.	.	.	.	.
4F\	.	.	.	.	.	.
!LO:SIC:v:t=custos E	!	!	!	!	!	!
2D/	.	.	.	.	.	.
!LO:PB:g=original	!	!	!	!	!	!
=43-	=43-	=43-	=43-	=43-	=43-	=43-
2E/	.	1c	.	-di-	.	.
2F/	.	.	.	.	.	.
2D/	.	1B	.	.	0r	.
1E	.	.	.	.	.	.
=44-	=44-	=44-	=44-	=44-	=44-	=44-
.	.	2c/	o-	.	.	.
2C/	.	1A	-vi-	.	.	.
2D/	.	.	.	.	1r	.
2BB/	.	2G/	-bus	.	.	.
=45-	=45-	=45-	=45-	=45-	=45-	=45-
2AA/	.	2A/	.	.	2r	.
1E	.	2B/	.	.	1g	Ma-
.	.	1c	.	.	.	.
2AA/	.	.	.	.	2e/	.
=46-	=46-	=46-	=46-	=46-	=46-	=46-
2BB/	.	2G/	su-	.	2d/	.
1AA	.	1A	-is	.	1c	.
2BB/	.	1G/	.	-cta	2d/	.
=47-	=47-	=47-	=47-	=47-	=47-	=47-
!	!	!	!	!	!LO:SIC:v:t=custos d	!
2C/	.	.	.	.	2e/	.
!	!	!	!	!	!LO:PB:g=original	!
2D/	.	2F/	.	.	2.d/	.
!LO:SIC:v:t=custos G	!	!	!	!	!	!
2GG/	.	1G	.	.	.	.
.	.	.	.	.	4c/	.
!LO:LB:g=original	!	!	!	!	!	!
2.G\	-cta	.	.	.	2d/	.
=48-	=48-	=48-	=48-	=48-	=48-	=48-
!	!	!LO:SIC:v:t=custos G	!	!	!	!
.	.	2r	.	.	2.g\	-Ma-
4F\	.	.	.	.	.	.
!	!	!LO:LB:g=original	!	!	!	!
4E/	.	1G	et	Ma-	.	.
4D/	.	.	.	.	4f/	.
2C/	.	.	.	.	4e/	.
.	.	.	.	.	4d/	.
2E/	Ma-	2E/	.	.	2c/	.
=49-	=49-	=49-	=49-	=49-	=49-	=49-
2D/	.	2F/	.	.	2d/	.
2C/	.	2E/	.	.	1e	.
1F	.	1D	.	.	.	.
.	.	.	.	.	2d/	.
=50-	=50-	=50-	=50-	=50-	=50-	=50-
2E/	.	1C	.	.	1e	.
2.G\	.	.	.	.	.	.
.	.	1G	pro	.	2d/	.
4F/	.	.	.	.	.	.
2E/	.	.	.	.	1g\	.
=51-	=51-	=51-	=51-	=51-	=51-	=51-
1D	.	1A	ſu-	.	.	.
.	.	.	.	.	2f\	.
!	!	!	!	!	!LO:SIC:v:t=custos f	!
1E	.	1G	-o	.	1g	.
!	!	!	!	!	!LO:LB:g=original	!
=52-	=52-	=52-	=52-	=52-	=52-	=52-
!LO:SIC:v:t=custos C	!	!	!	!	!	!
2r	.	2A/	.	.	2f\	.
!LO:LB:g=original	!	!	!	!	!	!
*clefF3	*	*	*	*	*	*
2C/	.	1c	gre-	.	2e\	.
1G	.	.	.	.	1d	.
.	.	2B/	.	.	.	.
=53-	=53-	=53-	=53-	=53-	=53-	=53-
2C/	.	1c	-ge	.	1c	.
2c\	.	.	.	.	.	.
2B\	.	1r	.	.	1r	.
2G/	.	.	.	.	.	.
=54-	=54-	=54-	=54-	=54-	=54-	=54-
1A	.	1c	.	.	2r	.
.	.	.	.	.	2c/	.
2G/	.	2B/	.	.	2d/	.
!	!	!LO:SIC:v:t=custos A	!	!	!	!
2E/	.	2G/	.	.	2e/	.
!	!	!LO:LB:g=original	!	!	!	!
=55-	=55-	=55-	=55-	=55-	=55-	=55-
1F	.	1A	.	.	2c/	.
.	.	.	.	.	2A/	.
2E/	.	2G/	.	.	2B/	.
2C/	.	2E/	.	.	1e\	.
=56-	=56-	=56-	=56-	=56-	=56-	=56-
1D	.	1F	.	.	.	.
.	.	.	.	.	2d/	.
2C/	.	1E	.	.	1e	.
2AA/	.	.	.	.	.	.
=57-	=57-	=57-	=57-	=57-	=57-	=57-
!LO:SIC:v:t=custos C	!	!	!	!	!LO:SIC:v:t=custos f	!
1D	.	2r	.	.	1f	.
.	.	2D/	et	.	.	.
!LO:LB:g=original	!	!	!	!	!LO:LB:g=original	!
*clefF4	*	*	*	*	*	*
1C	.	2G/	pro	.	1e	.
.	.	2A/	ſu-	.	.	.
=58-	=58-	=58-	=58-	=58-	=58-	=58-
2r	.	2.c\	-o	.	2r	.
1F	.	.	.	.	2c/	.
.	.	4B/	.	.	.	.
.	.	2A/	gre-	.	2d/	.
2E/	.	2G/	-ge	.	2e/	.
=59-	=59-	=59-	=59-	=59-	=59-	=59-
1D	.	2A/	.	.	2f\	.
.	.	1B	.	.	2d/	.
2G\	.	.	.	.	2e/	.
!	!	!LO:SIC:v:t=custos d	!	!	!	!
2A\	.	2c/	.	.	2f\	.
!	!	!LO:PB:g=original	!	!	!	!
=60-	=60-	=60-	=60-	=60-	=60-	=60-
1.G	.	1d	.	.	2g\	.
.	.	.	.	.	4f\	.
.	.	.	.	.	4e\	.
.	.	2B/	.	.	2d/	.
2C/	.	2c/	.	.	2e/	.
=61-	=61-	=61-	=61-	=61-	=61-	=61-
1D	-ri-	1A	.	-ri-	1d	-ri-
1GG	-a	1G	.	-a	1d	-a
=62-	=62-	=62-	=62-	=62-	=62-	=62-
!	!	!	!	!	!LO:SIC:v:t=custos g	!
1C	.	2r	.	.	2r	.
!	!	!	!	!	!LO:LB:g=original	!
.	.	2G/	mo-	do-	2g\	do-
1r	.	2A/	-ri	.	2f\	.
.	.	2B/	di-	.	2d/	.
=63-	=63-	=63-	=63-	=63-	=63-	=63-
2r	.	1c	-gna-	.	2g\	.
2C/	do-	.	.	.	2e\	.
2D/	.	1B	.	.	2f\	.
!LO:SIC:v:t=custos F	!	!	!	!	!	!
2E/	.	.	.	.	2g\	.
!LO:LB:g=original	!	!	!	!	!	!
=64-	=64-	=64-	=64-	=64-	=64-	=64-
1F	.	1A	-tus	-mi-	2c/	.
.	.	.	.	.	2d/	.
1E	.	1G	eſt	-nus	1e	.
=65-	=65-	=65-	=65-	=65-	=65-	=65-
2D/	-mi-	2r	.	.	2f/	.
2C/	-nus	2G/	.	te-	1e	.
!	!	!LO:SIC:v:t=custos A	!	!	!	!
1F	te-	1A	.	.	.	.
.	.	.	.	.	2d/	-mi-
!	!	!LO:LB:g=original	!	!	!	!
=66-	=66-	=66-	=66-	=66-	=66-	=66-
2E/	.	2G/	.	.	1e	-nus
2C/	.	2E/	.	.	.	.
1D	.	1F	.	.	2r	.
!	!	!	!	!	!LO:SIC:v:t=custos e	!
.	.	.	.	.	2d/	te-
!	!	!	!	!	!LO:LB:g=original	!
=67-	=67-	=67-	=67-	=67-	=67-	=67-
2AA/	.	2E/	.	.	2e/	.
2C/	.	1E	.	.	2c/	.
1BB	.	.	.	.	1d	.
.	.	2D/	.	.	.	.
=68-	=68-	=68-	=68-	=68-	=68-	=68-
2AA/	.	2E/	.	.	2c/	.
2GG/	.	2G/	.	.	2.e/	.
2AA/	.	1F	.	.	.	.
.	.	.	.	.	4c/	.
!LO:SIC:v:t=custos	!	!	!	!	!	!
2BB/	.	.	.	.	2d/	.
!LO:PB:g=original	!	!	!	!	!	!
=69-	=69-	=69-	=69-	=69-	=69-	=69-
2.C/	.	[0E;l	.	-cum	2.e/	.
4BB/	.	.	.	.	4d/	.
2AA/	.	.	.	.	2c/	.
2GG/	.	.	.	.	2B/	.
=70-	=70-	=70-	=70-	=70-	=70-	=70-
2AA/	.	0E_	.	.	2A/	.
2GG/	.	.	.	.	2B/	.
1AA	.	.	.	.	1c	.
=71-	=71-	=71-	=71-	=71-	=71-	=71-
!LO:SIC:v:t=custos C	!	!	!	!	!	!
0E;<	-cum	0E]	.	.	0B;	-cvm
==	==	==	==	==	==	==
*-	*-	*-	*-	*-	*-	*-
!!!system-decoration: [(s1,s2,s3)]
!!!RDF**kern: < = below
!!!RDF**kern: l = terminal long
!!!ENC: Arek Malec
!!!END: 2021-01-20
!!!ENC: Marta Lawrence
!!!END: 2022-01-23
